img/icons/likes-icon.svg

<svg width="17" height="16" viewBox="0 0 17 16" fill="none" xmlns="http://www.w3.org/2000/svg">
<path d="M8.49999 16C8.41399 16 8.32803 15.9758 8.251 15.9274C8.16733 15.8749 6.17943 14.6188 4.16301 12.7263C2.9679 11.6046 2.01391 10.4921 1.32761 9.41967C0.439494 8.03196 -0.00711925 6.69715 8.57994e-05 5.45227C0.00851936 4.00371 0.485281 2.64144 1.34265 1.61636C2.21449 0.574003 3.37799 0 4.61889 0C6.20921 0 7.66321 0.969439 8.50002 2.50515C9.33684 0.969475 10.7908 0 12.3812 0C13.5535 0 14.672 0.517925 15.5308 1.45839C16.4732 2.49044 17.0087 3.94868 16.9999 5.45914C16.9927 6.70184 16.5377 8.03463 15.6476 9.42043C14.9592 10.4923 14.0065 11.6043 12.8161 12.7257C10.807 14.618 8.83341 15.874 8.75037 15.9266C8.67298 15.9755 8.58645 16 8.49999 16Z" fill="#E8190C"/>
</svg>

<svg width="17" height="16" fill="none" xmlns="http://www.w3.org/2000/svg"><path d="M8.5 16a.467.467 0 01-.249-.073 29.87 29.87 0 01-4.088-3.2c-1.195-1.122-2.15-2.235-2.835-3.307C.439 8.032-.007 6.697 0 5.452c.009-1.448.485-2.81 1.343-3.836C2.214.574 3.378 0 4.619 0 6.209 0 7.663.97 8.5 2.505 9.337.97 10.79 0 12.381 0c1.172 0 2.291.518 3.15 1.458.942 1.032 1.478 2.49 1.469 4.001-.007 1.243-.462 2.576-1.352 3.961-.689 1.072-1.641 2.184-2.832 3.306a30.008 30.008 0 01-4.066 3.2.468.468 0 01-.25.074z" fill="#E8190C"/></svg>
